svg/OSM-icons/highway #a4a4a4 °ffffff !label=enhighways,deStrassen/18026;highway=steps;!steps=;!direction=;!incline=;!label=ensteps,deTreppe.svg

<svg xmlns="http://www.w3.org/2000/svg" viewBox="0 0 580 580" enable-background="new 0 0 580 580"><path fill="#111" stroke="#eee" stroke-width="3.408" d="m66.28 1.768c-41.34 0-64.57 21.371-64.57 65.04v450.12c0 40.844 20.894 62.23 62.19 62.23h452.02c41.31 0 62.23-20.316 62.23-62.23v-450.12c0-42.601-20.923-65.04-63.52-65.04-.003 0-448.49-.143-448.35 0z"/><g fill="#fff"><g transform="matrix(1.31651 0 0 1.31651-93.61-108.58)"><path d="m151.85 380.29v74.03h37 205.06 37v-74.03h-37-205.06-37"/><path opacity=".2" stroke="#fff" stroke-width="1.7" stroke-linecap="round" stroke-linejoin="round" d="m153.13 380.11l44.5-39.25h187.75l44.25 39.749-276.5-.5z"/></g><g transform="matrix(.90188 0 0 .90188 29.02-50.908)"><path d="m149.84 361.72v74.03h37 205.06 37v-74.03h-37-205.06-37"/><path opacity=".2" stroke="#fff" stroke-width="1.7" stroke-linecap="round" stroke-linejoin="round" d="m151.12 361.53l44.5-39.25h187.75l44.25 39.751-276.5-.5z"/></g><g transform="matrix(.61088 0 0 .61088 115.08-10.956)"><path d="m146.81 333.63v74.03h37 205.06 37v-74.03h-37-205.06-37"/><path opacity=".2" stroke="#fff" stroke-width="1.7" stroke-linecap="round" stroke-linejoin="round" d="m148.09 333.44l44.501-39.25h187.75l44.25 39.751-276.5-.5z"/></g><g transform="matrix(.41848 0 0 .41848 171.98 15.805)"><path d="m142.48 293.61v74.03h37 205.06 36.999v-74.03h-36.999-205.06-37"/><path opacity=".2" stroke="#fff" stroke-width="1.7" stroke-linecap="round" stroke-linejoin="round" d="m143.76 293.42l44.501-39.25h187.75l44.25 39.75-276.5-.502z"/></g><g transform="matrix(.28027 0 0 .28027 212.86 36.785)"><path d="m135.7 230.94v74.03h37 205.06 36.997v-74.03h-36.997-205.06-37"/><path opacity=".2" stroke="#fff" stroke-width="1.7" stroke-linecap="round" stroke-linejoin="round" d="m136.99 230.75l44.498-39.25h187.75l44.25 39.749-276.5-.498z"/></g></g></svg>

<?xml version="1.0" encoding="utf-8"?>
<!-- Generator: Adobe Illustrator 15.0.0, SVG Export Plug-In . SVG Version: 6.00 Build 0)  -->
<!DOCTYPE svg PUBLIC "-//W3C//DTD SVG 1.1//EN" "http://www.w3.org/Graphics/SVG/1.1/DTD/svg11.dtd">
<svg version="1.1" xmlns="http://www.w3.org/2000/svg" xmlns:xlink="http://www.w3.org/1999/xlink" x="0px" y="0px" width="580px"
	 height="580px" viewBox="0 0 580 580" enable-background="new 0 0 580 580" xml:space="preserve">
<g id="Layer_2">
	<g id="g1327">
		<path id="path1329" fill="#111111" stroke="#EEEEEE" stroke-width="3.408" d="M66.275,1.768
			c-41.335,0-64.571,21.371-64.571,65.036v450.123c0,40.844,20.894,62.229,62.192,62.229H515.92
			c41.307,0,62.229-20.316,62.229-62.229V66.804c0-42.601-20.923-65.036-63.522-65.036C514.624,1.768,66.133,1.625,66.275,1.768z"/>
	</g>
</g>
<g id="svg2" inkscape:version="0.46" sodipodi:docname="waste_bin.svg" sodipodi:version="0.32" xmlns:dc="http://purl.org/dc/elements/1.1/" xmlns:cc="http://creativecommons.org/ns#" xmlns:sodipodi="http://sodipodi.sourceforge.net/DTD/sodipodi-0.dtd" xmlns:svg="http://www.w3.org/2000/svg" xmlns:rdf="http://www.w3.org/1999/02/22-rdf-syntax-ns#" xmlns:inkscape="http://www.inkscape.org/namespaces/inkscape" inkscape:output_extension="org.inkscape.output.svg.inkscape">
	<defs>
		
		
			<inkscape:perspective  id="perspective10" inkscape:persp3d-origin="372.04724 : 350.78739 : 1" inkscape:vp_y="0 : 1000 : 0" inkscape:vp_x="0 : 526.18109 : 1" sodipodi:type="inkscape:persp3d" inkscape:vp_z="744.09448 : 526.18109 : 1">
			</inkscape:perspective>
	</defs>
	
		<sodipodi:namedview  id="base" inkscape:window-x="-4" inkscape:current-layer="layer1" inkscape:window-width="1600" inkscape:window-y="-4" inkscape:pageopacity="0.0" inkscape:window-height="1110" inkscape:pageshadow="2" bordercolor="#666666" inkscape:cy="520" pagecolor="#ffffff" borderopacity="1.0" inkscape:zoom="0.35" showgrid="false" inkscape:cx="-81.428571" inkscape:document-units="px">
		</sodipodi:namedview>
	<g>
		<g id="g7837" transform="matrix(1.3165145,0,0,1.3165145,-93.609169,-108.58088)">
			<path id="path4403" fill="#FFFFFF" d="M151.851,380.293v74.031h37h205.063h37v-74.031h-37H188.851H151.851z"/>
			
				<path id="path7289" sodipodi:nodetypes="ccccc" opacity="0.2" fill="#FFFFFF" stroke="#FFFFFF" stroke-width="1.7" stroke-linecap="round" stroke-linejoin="round" enable-background="new    " d="
				M153.132,380.105l44.5-39.249h187.75l44.25,39.749L153.132,380.105z"/>
		</g>
		<g id="g7847" transform="matrix(0.9018774,0,0,0.9018774,29.019758,-50.908024)">
			<path id="path7849" fill="#FFFFFF" d="M149.842,361.721v74.032h37h205.064h37v-74.032h-37H186.842H149.842z"/>
			
				<path id="path7851" sodipodi:nodetypes="ccccc" opacity="0.2" fill="#FFFFFF" stroke="#FFFFFF" stroke-width="1.7" stroke-linecap="round" stroke-linejoin="round" enable-background="new    " d="
				M151.123,361.534l44.5-39.251h187.75l44.25,39.751L151.123,361.534z"/>
		</g>
		<g id="g7853" transform="matrix(0.61088171,0,0,0.61088171,115.08174,-10.956045)">
			<path id="path7855" fill="#FFFFFF" d="M146.806,333.631v74.032h37.001h205.062h37v-74.032h-37H183.807H146.806z"/>
			
				<path id="path7857" sodipodi:nodetypes="ccccc" opacity="0.2" fill="#FFFFFF" stroke="#FFFFFF" stroke-width="1.7" stroke-linecap="round" stroke-linejoin="round" enable-background="new    " d="
				M148.088,333.444l44.501-39.251h187.749l44.251,39.751L148.088,333.444z"/>
		</g>
		<g id="g7859" transform="matrix(0.41848412,0,0,0.41848412,171.98332,15.804992)">
			<path id="path7861" fill="#FFFFFF" d="M142.479,293.608v74.03h37.001h205.063h36.999v-74.03h-36.999H179.48H142.479z"/>
			
				<path id="path7863" sodipodi:nodetypes="ccccc" opacity="0.2" fill="#FFFFFF" stroke="#FFFFFF" stroke-width="1.7" stroke-linecap="round" stroke-linejoin="round" enable-background="new    " d="
				M143.76,293.419l44.501-39.248h187.75l44.249,39.75L143.76,293.419z"/>
		</g>
		<g id="g7865" transform="matrix(0.28027175,0,0,0.28027175,212.85964,36.784637)">
			<path id="path7867" fill="#FFFFFF" d="M135.704,230.939v74.032h37h205.064h36.997v-74.032h-36.997H172.704H135.704z"/>
			
				<path id="path7869" sodipodi:nodetypes="ccccc" opacity="0.2" fill="#FFFFFF" stroke="#FFFFFF" stroke-width="1.7" stroke-linecap="round" stroke-linejoin="round" enable-background="new    " d="
				M136.986,230.754l44.498-39.251h187.75l44.251,39.749L136.986,230.754z"/>
		</g>
	</g>
</g>
</svg>
